Newaita/actions/22/news-unsubscribe.svg

<svg height="22" viewBox="0 0 22 22" width="22" xmlns="http://www.w3.org/2000/svg"><g fill="#424242"><path d="m3.636719 1.992188c-1.007813 0-1.816407.808593-1.816407 1.816406v14.554687c0 1.007813.808594 1.820313 1.816407 1.820313h9.097656v-1.820313h-8.1875c-.503906 0-.910156-.40625-.910156-.910156v-12.734375c0-.503906.40625-.910156.910156-.910156h12.734375c.503906 0 .910156.40625.910156.910156v8.1875h1.820313v-9.097656c0-1.007813-.8125-1.816406-1.820313-1.816406zm0 0"/><path d="m5.683594 5.628906h5.003906c.125 0 .226562.101563.226562.226563v.457031c0 .125-.101562.226562-.226562.226562h-5.003906c-.125 0-.226563-.101562-.226563-.226562v-.457031c0-.125.101563-.226563.226563-.226563zm0 0"/><path d="m5.683594 8.359375h5.003906c.125 0 .226562.101563.226562.226563v.453124c0 .125-.101562.230469-.226562.230469h-5.003906c-.125 0-.226563-.105469-.226563-.230469v-.453124c0-.125.101563-.226563.226563-.226563zm0 0"/><path d="m5.683594 11.085938h5.003906c.125 0 .226562.101562.226562.226562v.457031c0 .125-.101562.226563-.226562.226563h-5.003906c-.125 0-.226563-.101563-.226563-.226563v-.457031c0-.125.101563-.226562.226563-.226562zm0 0"/><path d="m5.683594 13.816406c-.125 0-.226563.101563-.226563.226563v.453125c0 .128906.101563.230468.226563.230468h7.050781v-.910156zm0 0"/><path d="m12.507812 5.628906c-.125 0-.226562.101563-.226562.226563v5.914062c0 .125.101562.226563.226562.226563h4.09375c.125 0 .226563-.101563.226563-.226563v-5.914062c0-.125-.101563-.226563-.226563-.226563zm.796876.910156h2.5c.0625 0 .113281.050782.113281.113282v4.320312c0 .0625-.050781.113282-.113281.113282h-2.5c-.066407 0-.117188-.050782-.117188-.113282v-4.320312c0-.0625.050781-.113282.117188-.113282zm0 0"/></g><path d="m18.59375 20.050781-3.859375-3.859375c-.179687-.175781-.179687-.464844 0-.644531l.640625-.640625c.179688-.179688.46875-.179688.644531 0l3.859375 3.859375c.175782.175781.175782.464844 0 .640625l-.644531.644531c-.175781.179688-.464844.179688-.640625 0zm0 0" fill="#f44336"/><path d="m14.734375 18.765625 3.859375-3.859375c.175781-.179688.464844-.179688.640625 0l.644531.640625c.175782.179687.175782.46875 0 .644531l-3.859375 3.859375c-.175781.179688-.464843.179688-.644531 0l-.640625-.644531c-.179687-.175781-.179687-.464844 0-.640625zm0 0" fill="#f44336"/></svg>

<?xml version="1.0" encoding="UTF-8"?>
<svg xmlns="http://www.w3.org/2000/svg" xmlns:xlink="http://www.w3.org/1999/xlink" width="22px" height="22px" viewBox="0 0 22 22" version="1.1">
<g id="surface1">
<path style=" stroke:none;fill-rule:nonzero;fill:rgb(25.882354%,25.882354%,25.882354%);fill-opacity:1;" d="M 3.636719 1.992188 C 2.628906 1.992188 1.820312 2.800781 1.820312 3.808594 L 1.820312 18.363281 C 1.820312 19.371094 2.628906 20.183594 3.636719 20.183594 L 12.734375 20.183594 L 12.734375 18.363281 L 4.546875 18.363281 C 4.042969 18.363281 3.636719 17.957031 3.636719 17.453125 L 3.636719 4.71875 C 3.636719 4.214844 4.042969 3.808594 4.546875 3.808594 L 17.28125 3.808594 C 17.785156 3.808594 18.191406 4.214844 18.191406 4.71875 L 18.191406 12.90625 L 20.011719 12.90625 L 20.011719 3.808594 C 20.011719 2.800781 19.199219 1.992188 18.191406 1.992188 Z M 3.636719 1.992188 "/>
<path style=" stroke:none;fill-rule:nonzero;fill:rgb(25.882354%,25.882354%,25.882354%);fill-opacity:1;" d="M 5.683594 5.628906 L 10.6875 5.628906 C 10.8125 5.628906 10.914062 5.730469 10.914062 5.855469 L 10.914062 6.3125 C 10.914062 6.4375 10.8125 6.539062 10.6875 6.539062 L 5.683594 6.539062 C 5.558594 6.539062 5.457031 6.4375 5.457031 6.3125 L 5.457031 5.855469 C 5.457031 5.730469 5.558594 5.628906 5.683594 5.628906 Z M 5.683594 5.628906 "/>
<path style=" stroke:none;fill-rule:nonzero;fill:rgb(25.882354%,25.882354%,25.882354%);fill-opacity:1;" d="M 5.683594 8.359375 L 10.6875 8.359375 C 10.8125 8.359375 10.914062 8.460938 10.914062 8.585938 L 10.914062 9.039062 C 10.914062 9.164062 10.8125 9.269531 10.6875 9.269531 L 5.683594 9.269531 C 5.558594 9.269531 5.457031 9.164062 5.457031 9.039062 L 5.457031 8.585938 C 5.457031 8.460938 5.558594 8.359375 5.683594 8.359375 Z M 5.683594 8.359375 "/>
<path style=" stroke:none;fill-rule:nonzero;fill:rgb(25.882354%,25.882354%,25.882354%);fill-opacity:1;" d="M 5.683594 11.085938 L 10.6875 11.085938 C 10.8125 11.085938 10.914062 11.1875 10.914062 11.3125 L 10.914062 11.769531 C 10.914062 11.894531 10.8125 11.996094 10.6875 11.996094 L 5.683594 11.996094 C 5.558594 11.996094 5.457031 11.894531 5.457031 11.769531 L 5.457031 11.3125 C 5.457031 11.1875 5.558594 11.085938 5.683594 11.085938 Z M 5.683594 11.085938 "/>
<path style=" stroke:none;fill-rule:nonzero;fill:rgb(25.882354%,25.882354%,25.882354%);fill-opacity:1;" d="M 5.683594 13.816406 C 5.558594 13.816406 5.457031 13.917969 5.457031 14.042969 L 5.457031 14.496094 C 5.457031 14.625 5.558594 14.726562 5.683594 14.726562 L 12.734375 14.726562 L 12.734375 13.816406 Z M 5.683594 13.816406 "/>
<path style=" stroke:none;fill-rule:nonzero;fill:rgb(25.882354%,25.882354%,25.882354%);fill-opacity:1;" d="M 12.507812 5.628906 C 12.382812 5.628906 12.28125 5.730469 12.28125 5.855469 L 12.28125 11.769531 C 12.28125 11.894531 12.382812 11.996094 12.507812 11.996094 L 16.601562 11.996094 C 16.726562 11.996094 16.828125 11.894531 16.828125 11.769531 L 16.828125 5.855469 C 16.828125 5.730469 16.726562 5.628906 16.601562 5.628906 Z M 13.304688 6.539062 L 15.804688 6.539062 C 15.867188 6.539062 15.917969 6.589844 15.917969 6.652344 L 15.917969 10.972656 C 15.917969 11.035156 15.867188 11.085938 15.804688 11.085938 L 13.304688 11.085938 C 13.238281 11.085938 13.1875 11.035156 13.1875 10.972656 L 13.1875 6.652344 C 13.1875 6.589844 13.238281 6.539062 13.304688 6.539062 Z M 13.304688 6.539062 "/>
<path style=" stroke:none;fill-rule:nonzero;fill:rgb(95.686275%,26.274511%,21.176471%);fill-opacity:1;" d="M 18.59375 20.050781 L 14.734375 16.191406 C 14.554688 16.015625 14.554688 15.726562 14.734375 15.546875 L 15.375 14.90625 C 15.554688 14.726562 15.84375 14.726562 16.019531 14.90625 L 19.878906 18.765625 C 20.054688 18.941406 20.054688 19.230469 19.878906 19.40625 L 19.234375 20.050781 C 19.058594 20.230469 18.769531 20.230469 18.59375 20.050781 Z M 18.59375 20.050781 "/>
<path style=" stroke:none;fill-rule:nonzero;fill:rgb(95.686275%,26.274511%,21.176471%);fill-opacity:1;" d="M 14.734375 18.765625 L 18.59375 14.90625 C 18.769531 14.726562 19.058594 14.726562 19.234375 14.90625 L 19.878906 15.546875 C 20.054688 15.726562 20.054688 16.015625 19.878906 16.191406 L 16.019531 20.050781 C 15.84375 20.230469 15.554688 20.230469 15.375 20.050781 L 14.734375 19.40625 C 14.554688 19.230469 14.554688 18.941406 14.734375 18.765625 Z M 14.734375 18.765625 "/>
</g>
</svg>
